X:1
T:Title
%%score { ( 1 3 ) | ( 2 4 ) }
L:1/8
Q:1/4=100
M:4/4
K:G
V:1 treble nm="Grand Piano"
V:3 treble 
V:2 bass 
V:4 bass 
V:1
 [DB]3 [CA]/[B,G]/ [B,D]2 [B,G]2 | [DG]2 A2 B4 | [Fd]3 c/A/ [Fd]3 c/A/ | [B,G]2 [^CGA]2 [DFA]4 | %4
w: Robert~Lowry * * * *||||
 B3 A/G/ [B,D]2 [B,DG]2 | [B,EG]2 [EA]2 [^DFB]4 | [EAc]3 [GB]/[FA]/ [DGd]2 [EGc][EA] | %7
w: |||
 [B,DG]2 [A,DF]2 [B,DG]4 | B3 G/F/ E2 G2 | [^DB]3 [FA] [EG]4 | [FA]3 [GB]/[FA]/ [DF]2 [Fd]2 | %11
w: ||||
 ^c2 Bc [Fd]4 | d3 c/B/ [CFA]2 [DFB]2 | [B,G]2 [EA]2 [^DFB]4 | [EAc]3 [GB]/[FA]/ [DGd]2 [EGc][EA] | %15
w: ||||
 [B,DG]2 [A,DF]2 [B,DG]4 |] %16
w: |
V:2
 [G,,G,]3 [G,,G,] [G,,G,]2 [G,,G,]2 | [B,,G,]2 [D,F,D]2 [G,D]4 | [D,A,]3 [D,A,] [D,A,]3 A,/C/ | %3
 E,2 A,,2 D,4 | z2 z .C z4 | E,2 C,2 B,,4 | A,,3 D,/C,/ B,,2 z C | D,2 D,2 G,,4 | z2 z .B, z4 | %9
 [B,,B,]3 [B,,B,] [E,B,]4 | [D,D]3 [D,D] [D,A,]2 [D,A,]2 | [A,E]2 [A,G]2[K:bass] [D,A,]4 | %12
 z2 z D z4 | E,2 C,2 B,,4 | A,,3 D,/C,/ B,,2 z C | D,2 D,2 G,,4 |] %16
V:3
 x8 | x8 | z2 z F z2 z F | x8 | x8 | x8 | z2 z C z4 | x8 | x8 | x8 | x8 | x8 | x8 | x8 | %14
 z2 z D z4 | x8 |] %16
V:4
 x8 | x8 | z4 z2 z D, | x8 | [G,DG]3 [G,D]/-[G,B,D]/ G,2 G,2 | x8 | z4 z2 C,2 | x8 | %8
 [E,G,E]3 [E,E]/-[E,A,E]/ [E,G,]2 [E,B,E]2 | x8 | x8 | x4[K:bass] x4 | %12
 [G,B,D]3 [F,A,]/G,/ D,2 D,2 | x8 | z4 z2 C,2 | x8 |] %16

